X: 15940
T: Granny Hold The Candle While I Shave The Chicken's Lip
R: reel
M: 4/4
K: Eminor
|:BE E2 G2(G2|G)EGA B2AG|BE E2 EFGE|FDAD BDBc|
BE E2 G2(G2|G)EGA B2AF|DAFA B2AF|B2AF BE E2:|
|:Beed e2de|e2de gfed|e2de BedB|AdBA FAB2|
Beed e2de|e2de gfeg|fe^df e^dB^c|^dBAF B2BA:|

